; 交響曲第九番
T110O4L4
F+F+GA AGF+E DDEF+ F+.E8E2
F+F+GA AGF+E DDEF+ E.D8D2
EEF+D EF+8G8F+D EF+8G8F+E DE<A>F+&
F+F+GA AGF+E DDEF+ E.D8D2

O5
F+F+GA AGF+E DDEF+ F+.E8E2
F+F+GA AGF+E DDEF+ E.D8D2
EEF+D EF+8G8F+D EF+8G8F+E DE<A>F+&
F+F+GA AGF+E DDEF+ E.D8D2
